X:12
T:Musical Priest, The
T:Musical Priest
M:4/4
L:1/8
R:reel
K:Bmin
|:BA|FBBA B2Bd|cBAf ecBA|FBBA B2Bd|cBAc B2:|
|:Bc|d2dc dfed|(3cBA eA fAeA|dcBc defb|afec B2:|
|Bc|dBB2 bafb|afec ABce|dB B2 bafb|afec B2Bc|
dB B2 bafb|afec ABce|dcBc defb|afec B2|
W:Variation from gian marco
K:BMin
|:BA|FB~B2 BABd|cBAf ecBA|FB~B2 BABd|cBAF B2:|
|:Bc|d2dc dfed|(3cBA eA fAeA|1dcBc dfaf|edcd B2:|2dcBc dbaf|edcd B2
||:Bc|dB~B2 bafb|afec Acec|dB~B2 bafb|afec B2:|

